X:137
T:Ducks on a Millpond
C:Traditional
N: Arranged by W. Curry
R:bluegrass
L:1/8
Q:1/4=125
M:4/4
K:Bb
z7/1d/=e/ | [gBDG,]"Gm"g/a/ g/f/d [gBDG,]g/a/ g/f/d | "F"[fA]f/g/ f/d/c/A/ d/c/d/f/ gd | 
[g3/2B3/2D3/2G,3/2]a/ g/f/d [gBDG,]g/a/ g/f/d/=e/ | "D"f/g/f/=e/ d/f/d/c/ A/G/"Gm"D/B,/ G,2 | 
[gdDG,]g/a/ g/f/d [g3/2B3/2D3/2G,3/2]a/ g/f/d/=e/ | "F"ff/g/ f/d/c/A/ d/c/d g[gd] | 
[gBDG,]"Gm"g/a/ g/f/[dD] [gBDG,]g/a/ g/f/d/=e/ | "D"f/g/f/=e/ d/c/"Gm"A/G/ D/C/B, G,2 | 
[F/G,/]G3/2 [G3/2G,3/2]A/ B/A/B/c/ dD/=E/ | "F"FA F/=E/D/E/ FA F/E/D | "Gm"[F/G,/][GG,]F/ [G3/2G,3/2]A/ B/A/B/c/ d/f/g/b/ | 
"D"g/f/d/c/ B/G/D/C/ "Gm"B,/G,/A, G,[DG,] | [F/G,/]G3/2 [G3/2G,3/2]A/ B/A/B/c/ d/A/D/=E/ | 
"F"FA A/=E/D/E/ FA F/E/D | "Gm"[F/G,/][GG,][F/G,/] [G3/2G,3/2]A/ B/A/B/c/ d/f/g/b/ | 
"D"g/f/d/g/ f/d/c/A/ "Gm"G/F/D/B,/ G,2 | z8 | 


